packages/icons/src/location-top-right.svg

<svg width="24" height="24" viewBox="0 0 24 24" fill="none" xmlns="http://www.w3.org/2000/svg">
<path fill-rule="evenodd" clip-rule="evenodd" d="M4.10557 11.211L3.96057 11.291C2.42357 12.209 2.79457 14.599 4.60757 14.961L8.29957 15.7L9.03857 19.392C9.41157 21.26 11.9366 21.598 12.7886 19.894L18.7886 7.89402C19.6486 6.17502 17.8246 4.35202 16.1056 5.21102L4.10557 11.211ZM16.9996 7.00002L10.9996 19L9.99957 14L4.99957 13L16.9996 7.00002Z" fill="currentColor"/>
</svg>

<svg xmlns="http://www.w3.org/2000/svg" width="24" height="24" fill="none" viewBox="0 0 24 24">
  <path fill="#000" fill-rule="evenodd" d="m4.106 11.211-.145.08c-1.537.918-1.166 3.308.647 3.67L8.3 15.7l.739 3.692c.373 1.868 2.898 2.206 3.75.502l6-12c.86-1.719-.964-3.542-2.683-2.683l-12 6ZM17 7l-6 12-1-5-5-1 12-6Z" clip-rule="evenodd"/>
</svg>
